!!!COA:	Josquin des Prez
!!!CDT:	~1450-1521/08/27
!!!OTL:	Domine est terra
!!!AGN:	Motet
!!!SCT:	NJE 16.12
!!!SCA:	New Josquin Edition 16.12
!!!voices:	4
**kern	**kern	**kern	**kern
*staff4	*staff3	*staff2	*staff1
*Ivox	*Ivox	*Ivox	*Ivox
*I"Bassus	*I"Tenor	*I"Altus	*I"Discantus
*I'B	*I'T	*I'A	*I'D
*>[A,B]	*>[A,B]	*>[A,B]	*>[A,B]
*>A	*>A	*>A	*>A
*clefF4	*clefGv2	*clefG2	*clefG2
*k[b-]	*k[b-]	*k[b-]	*k[b-]
*M2/1	*M2/1	*M2/1	*M2/1
*met(C|)	*met(C|)	*met(C|)	*met(C|)
!!section: Prima pars: Domine est terra
!!!OMD: Prima pars: Domine est terra
=1-	=1-	=1-	=1-
0r	0r	0r	1.cc
.	.	.	2cc\
=2	=2	=2	=2
0r	0r	1.f	1a
.	.	.	1cc
.	.	2f/	.
=3	=3	=3	=3
0r	0r	1d	1.ff
.	.	1f	.
.	.	.	2ee\
=4	=4	=4	=4
0r	0r	1.b-	1dd
.	.	.	2r
.	.	2a/	2cc\
=5	=5	=5	=5
0r	0r	1g	2dd\
.	.	.	2ee\
.	.	2r	2.ff\
.	.	2f/	.
.	.	.	4ee\
=6	=6	=6	=6
0r	0r	2g/	2dd\
.	.	2a/	2cc\
.	.	2.b-\	1dd
.	.	4a/	.
=7	=7	=7	=7
0r	1.c	2g/	2ee\
.	.	2.a/	2.ff\
.	.	8g/L	8ee\L
.	.	8f/J	8dd\J
.	2c\	2g/	2ee\
=8	=8	=8	=8
1.F	1A	[0a	0cc
.	1c	.	.
2F\	.	.	.
=9	=9	=9	=9
1D	1.f	0a]	0r
1F	.	.	.
.	2e\	.	.
=10	=10	=10	=10
1.B-	1d	0r	0r
.	2r	.	.
2A\	2c\	.	.
=11	=11	=11	=11
1G	2d\	0r	0r
.	2e\	.	.
2r	2.f\	.	.
2F\	.	.	.
.	4e\	.	.
=12	=12	=12	=12
2G\	2d\	0r	0r
2A\	2c\	.	.
2.B-\	2.d\	.	.
4A\	4c\	.	.
=13	=13	=13	=13
2G\	4d\	0r	0r
.	4e\	.	.
2F\	1f	.	.
1G	.	.	.
.	2e\	.	.
=14	=14	=14	=14
0F	0f	1a	1cc
.	.	2a/	2cc\
.	.	2f/	2cc\
=15	=15	=15	=15
0r	0r	1b-	1dd
.	.	1a	[1cc
=16	=16	=16	=16
0r	0r	2r	1cc]
.	.	2f/	.
.	.	2g/	2r
.	.	2a/	2cc\
=17	=17	=17	=17
0r	0r	2b-\	2dd\
.	.	1a	2ee\
.	.	.	1ff
.	.	2f/	.
=18	=18	=18	=18
1r	0r	2g/	2ee\
.	.	1a	2cc\
1B-	.	.	2.dd\
.	.	[2g/	.
.	.	.	4dd\
=19	=19	=19	=19
2A\	0r	2g/]	2cc\
2F\	.	1f	2a/
1G	.	.	1b-
.	.	2e/	.
=20	=20	=20	=20
1F	1f	1f	1a
2r	2e\	1r	2g/
2F\	2c\	.	2cc\
=21	=21	=21	=21
2F\	1d	0r	2a/
2D\	.	.	2b-\
2E\	1c	.	[1cc
[2F\	.	.	.
=22	=22	=22	=22
4F\]	2r	0r	0cc]
4G\	.	.	.
4A\	2c\	.	.
4B-\	.	.	.
2c\	2c\	.	.
2F\	2A/	.	.
=23	=23	=23	=23
2G\	2B-\	0r	0r
2.F\	2c\	.	.
.	2d\	.	.
4E\	.	.	.
2C/	[2c\	.	.
=24	=24	=24	=24
1D	2c\]	1r	1ff
.	2Bni\	.	.
1C	1c	1cc	1ee
=25	=25	=25	=25
0r	1r	1b-	1dd
.	1f	1a	1cc
=26	=26	=26	=26
1c	1e	1g	2r
.	.	.	2cc\
1B-	1d	2r	2dd\
.	.	2f/	[2ff\
=27	=27	=27	=27
1A	1c	1cc	2ff\]
.	.	.	1ee
1G	2r	2.b-\	.
.	2d\	.	[2dd\
.	.	4b-\	.
=28	=28	=28	=28
2r	1f	1a	2dd\]
1F	.	.	2cc\
.	2c\	2r	2cc\
2F\	2c\	2f/	2a/
=29	=29	=29	=29
2BB-/	1d	2.f/	1b-
2BB-/	.	.	.
.	.	4g/	.
2F\	2c\	2a/	2cc\
2F\	2d\	2a/	4ff\
.	.	.	4ee\
=30	=30	=30	=30
2G\	2B-\	2b-\	4dd\
.	.	.	4cc\
2A\	2c\	1a	1cc
1B-	1d	.	.
.	.	2g/	2b-\
=31	=31	=31	=31
[0F	1c	[0a	0cc
.	2r	.	.
.	2c\	.	.
=32	=32	=32	=32
1F]	2c\	0a]	2r
.	2c\	.	2cc\
2r	[1f	.	2cc\
2F\	.	.	2cc\
=33	=33	=33	=33
2F\	2f\]	2r	1.ff
2F\	2e\	2f/	.
[1B-	1d	2f/	.
.	.	2f/	2ee\
=34	=34	=34	=34
2B-\]	1.G	1.b-	1dd
2A\	.	.	.
1G	.	.	2r
.	2G/	2a/	[2g/
=35	=35	=35	=35
1.C	1.c	1g	2g/]
.	.	.	2g/
.	.	[1c	[1cc
2C/	2B-\	.	.
=36	=36	=36	=36
1.F	2A/	2c/]	2cc\]
.	2G/	2c/	2b-\
.	[1F	[1f	2a/
2E\	.	.	2g/
=37	=37	=37	=37
2D\	1F]	2f/]	1f
2C/	.	2e/	.
[1BB-	[1B-	[1d	2f/
.	.	.	[2g/
=38	=38	=38	=38
1BB-]	2B-\]	1d]	4g/]
.	.	.	4f/
.	2A/	.	1f
1C	1G	1c	.
.	.	.	2e/
=39	=39	=39	=39
2r	1F	0A	0f
1D	.	.	.
.	2r	.	.
2D\	[2A/	.	.
=40	=40	=40	=40
1F	2A/]	0r	0r
.	2A/	.	.
1F	1c	.	.
=41	=41	=41	=41
2r	1c	0r	0r
2F\	.	.	.
2G\	2r	.	.
2A\	2c\	.	.
=42	=42	=42	=42
2B-\	2d\	1r	0r
2G\	2e\	.	.
2.F\	2f\	2r	.
.	2d\	[2f/	.
4G\	.	.	.
=43	=43	=43	=43
2A\	2c\	2f/]	0r
2B-\	1f	2f/	.
1G	.	1g	.
.	2e\	.	.
=44	=44	=44	=44
0F	0f	1a	2r
.	.	.	1cc
.	.	2r	.
.	.	2f/	2cc\
=45	=45	=45	=45
0r	0r	2b-\	1dd
.	.	2b-\	.
.	.	2.a/	1ee
.	.	4g/	.
=46	=46	=46	=46
2r	0r	2f/	2r
1c	.	2e/	2cc\
.	.	1d	2ff\
2B-\	.	.	2ff\
=47	=47	=47	=47
2.c\	2r	1c	2.ee\
.	2e\	.	.
4B-\	.	.	4dd\
2A\	2e\	1r	2cc\
2G\	2e\	.	2b-\
=48	=48	=48	=48
1F	1f	0r	1a
2r	2r	.	2r
2c\	2e\	.	2a/
=49	=49	=49	=49
2c\	2e\	0r	2a/
2c\	2e\	.	2a/
2.d\	2.f\	.	2.b-\
4c\	4e\	.	4a/
=50	=50	=50	=50
2B-\	2d\	0r	2g/
2A\	2c\	.	2f/
2G\	1d	.	1b-
2B-\	.	.	.
=51	=51	=51	=51
1F	1c	1r	1a
1C	2r	2r	2r
.	2c\	2g/	2ee\
=52	=52	=52	=52
0r	2c\	2g/	2ee\
.	2c\	2g/	2ee\
.	1F	[1a	2.ff\
.	.	.	4ee\
=53	=53	=53	=53
0r	0r	2a/]	2dd\
.	.	2g/	2cc\
.	.	1a	1ff
=54	=54	=54	=54
2r	1r	0g	0ee
2C/	.	.	.
2C/	2r	.	.
2C/	2c\	.	.
=55	=55	=55	=55
2.F\	2c\	0a	2r
.	2c\	.	2cc\
4F\	.	.	.
1F	2.f\	.	2cc\
.	.	.	2cc\
.	4f\	.	.
=56	=56	=56	=56
2r	1f	2r	2.ff\
2D\	.	2f/	.
.	.	.	4ff\
2D\	2r	2f/	1ff
2D\	2d\	2f/	.
=57	=57	=57	=57
1.G	2d\	2.b-\	2r
.	2d\	.	2dd\
.	.	4b-\	.
.	[1g	1b-	2dd\
2F\	.	.	2dd\
=58	=58	=58	=58
2.E\	2g\]	2r	1.gg
.	2f\	2g/	.
4D\	.	.	.
1C	2.e\	2g/	.
.	.	2g/	2ff\
.	4d\	.	.
=59	=59	=59	=59
2r	1c	1.cc	2.ee\
1C	.	.	.
.	.	.	4dd\
.	1g	.	2cc\
2G\	.	2b-\	[2dd\
=60	=60	=60	=60
2A\	2e\	1a	4dd\]
.	.	.	4cc\
2F\	2f\	.	2.cc\
1G	[1d	1g	.
.	.	.	4a/
.	.	.	2b-\
=61	=61	=61	=61
1D	2d\]	0f	0a
.	4c\	.	.
.	4B-\	.	.
2r	1A	.	.
2F\	.	.	.
=62	=62	=62	=62
2E\	2r	0r	0r
2F\	2c\	.	.
2G\	2B-\	.	.
2F\	2c\	.	.
=63	=63	=63	=63
2r	2d\	0r	0r
2A\	2c\	.	.
1c	2r	.	.
.	2e\	.	.
=64	=64	=64	=64
2G\	1g	0r	0r
1B-	.	.	.
.	2d\	.	.
2A\	[2f\	.	.
=65	=65	=65	=65
2B-\	2f\]	0r	0r
2G\	2e\	.	.
[1F	2f\	.	.
.	[2d\	.	.
=66	=66	=66	=66
2F\]	2d\]	1r	0r
2E\	1c	.	.
1D	.	1f	.
.	2Bni\	.	.
=67	=67	=67	=67
0C	0c	1.e	1.cc
.	.	2f/	2dd\
=68	=68	=68	=68
0r	0r	1g	1ee
.	.	2.a/	2.ff\
.	.	4g/	4ee\
=69	=69	=69	=69
0r	0r	2f/	2dd\
.	.	2e/	1cc
.	.	1d	.
.	.	.	2bni\
=70	=70	=70	=70
0r	0r	2c/	1cc
.	.	2f/	.
.	.	2g/	2r
.	.	2a/	2cc\
=71	=71	=71	=71
0r	0r	2b-\	2dd\
.	.	2g/	2ee\
.	.	2a/	2ff\
.	.	2b-\	[2gg\
=72	=72	=72	=72
1r	0r	2cc\	4gg\]
.	.	.	4ff\
.	.	2a/	1ff
1C	.	1g	.
.	.	.	2ee\
=73	=73	=73	=73
2D\	1F	1f	1ff
1F	.	.	.
.	1G	1r	1r
2E\	.	.	.
=74	=74	=74	=74
2F\	2.A/	0r	0r
1A	.	.	.
.	4B-\	.	.
.	2c\	.	.
2G\	[2d\	.	.
=75	=75	=75	=75
2F\	2d\]	0r	0r
2E\	1c	.	.
1D	.	.	.
.	2Bni\	.	.
=76	=76	=76	=76
2.C/	1c	0r	0r
4D\	.	.	.
2E\	2r	.	.
4F\	[2c\	.	.
4G\	.	.	.
=77	=77	=77	=77
4A\	2c\]	0r	0r
4B-\	.	.	.
1c	2c\	.	.
.	1d	.	.
2Bni\	.	.	.
=78	=78	=78	=78
1c	1e	0r	0r
2r	2.f\	.	.
[2F\	.	.	.
.	4e\	.	.
=79	=79	=79	=79
2F\]	2d\	0r	0r
2F\	1c	.	.
1G	.	.	.
.	2B-\	.	.
=80	=80	=80	=80
1A	1c	0r	0r
2.B-\	2.d\	.	.
4A\	4c\	.	.
=81	=81	=81	=81
2G\	2B-\	0r	0r
1F	2A/	.	.
.	1G	.	.
2E\	.	.	.
=82	=82	=82	=82
1F	1A	2r	2r
.	.	1a	1cc
1r	1r	.	.
.	.	2a/	2cc\
=83	=83	=83	=83
0r	0r	2b-\	2dd\
.	.	2g/	2ee\
.	.	2a/	2ff\
.	.	2b-\	2dd\
=84	=84	=84	=84
0r	0r	2.cc\	2.ee\
.	.	4b-\	4dd\
.	.	2a/	2cc\
.	.	2g/	2b-\
=85	=85	=85	=85
1r	0r	2f/	2a/
.	.	1b-	2g/
2r	.	.	1cc
2F\	.	[2a/	.
=86	=86	=86	=86
2G\	1r	2a/]	1b-
2E\	.	2g/	.
2F\	2r	1a	2a/
2A\	2c\	.	2cc\
=87	=87	=87	=87
1G	2d\	2b-\	2b-\
.	2B-\	2g/	1dd
2F\	2c\	2a/	.
2C/	2e\	[2g/	[2cc\
=88	=88	=88	=88
1G	1d	4g/]	2cc\]
.	.	4f/	.
.	.	2g/	2b-\
2A\	[1c	2e/	2cc\
2F\	.	[2a/	[2ff\
=89	=89	=89	=89
1c	1c]	2a/]	4ff\]
.	.	.	4ee\
.	.	2g/	2ee\
2F\	2r	2a/	2cc\
[2B-\	[2f\	2d/	[2dd\
=90	=90	=90	=90
4B-\]	4f\]	2r	4dd\]
4c\	4e\	.	4cc\
1A	2e\	2e/	2cc\
.	2c\	2f/	2a/
[2G\	[2d\	[2g/	[2b-\
=91	=91	=91	=91
4G\]	4d\]	4g/]	4b-\]
4A\	4c\	4e/	4b-\
1F	2c\	2f/	2a/
.	2A/	2d/	2f/
[2E-\	[2B-\	[2e-i/	[2g/
=92	=92	=92	=92
4E-\]	4B-\]	4e-/]	2g/]
4D\	4F/	4f/	.
2F\	2A/	2c/	1f
1C	1G	1g	.
.	.	.	2e/
=93	=93	=93	=93
[0Fl	[0Fl	[0a	[0fl
=94	=94	=94	=94
0F_	0F_	0a]	0f_
=95	=95	=95	=95
0F]	0F]	0cl	0f]
!!LO:LB:i:g=z
=96||	=96||	=96||	=96||
*>B	*>B	*>B	*>B
*clefF4	*clefGv2	*clefG2	*clefG2
*k[b-]	*k[b-]	*k[b-]	*k[b-]
*M2/1	*M2/1	*M2/1	*M2/1
*met(C|)	*met(C|)	*met(C|)	*met(C|)
!!section: Secunda pars: Hec est generatio
!!!OMD: Secunda pars: Hec est generatio
0r	0r	0r	1.cc
.	.	.	2a/
=97	=97	=97	=97
0r	0r	0r	2b-\
.	.	.	2cc\
.	.	.	2dd\
.	.	.	2dd\
=98	=98	=98	=98
0r	0r	1.f	1cc
.	.	.	2a/
.	.	2d/	2b-\
=99	=99	=99	=99
0r	0r	2e/	2cc\
.	.	2f/	1dd
.	.	2g/	.
.	.	2g/	4cc\
.	.	.	4b-\
=100	=100	=100	=100
0r	0r	2.f/	2a/
.	.	.	1ff
.	.	4g/	.
.	.	4a/	.
.	.	4b-\	.
.	.	[2cc\	2ee\
=101	=101	=101	=101
0r	0r	2cc\]	1dd
.	.	2b-\	.
.	.	2.cc\	2ee\
.	.	.	4cc\
.	.	4b-\	4dd\
=102	=102	=102	=102
0r	2r	2a/	4ee\
.	.	.	4ff\
.	1c	2g/	1gg
.	.	2a/	.
.	2A/	2f/	[2ff\
=103	=103	=103	=103
0r	2B-\	1g	2ff\]
.	2c\	.	2ee\
.	2d\	[1f	[1ff
.	2d\	.	.
=104	=104	=104	=104
1.F	1c	0f]	1ff]
.	1f	.	1r
2D\	.	.	.
=105	=105	=105	=105
2E\	2e\	0r	0r
2F\	1d	.	.
2G\	.	.	.
2G\	4c\	.	.
.	4B-\	.	.
=106	=106	=106	=106
1F	2A/	0r	0r
.	1f	.	.
1B-	.	.	.
.	4e\	.	.
.	4d\	.	.
=107	=107	=107	=107
2A\	2c\	0r	0r
1G	2d\	.	.
.	4B-\	.	.
.	4c\	.	.
4F\	4d\	.	.
4E\	4e\	.	.
=108	=108	=108	=108
2D\	2f\	0r	0r
1B-	1g	.	.
2A\	[2f\	.	.
=109	=109	=109	=109
1G	2f\]	1r	1r
.	2e\	.	.
1F	1f	2r	2r
.	.	2a/	2cc\
=110	=110	=110	=110
2r	2r	2.a/	2.cc\
2F\	2c\	.	.
.	.	4a/	4cc\
2.F\	2.c\	1a	1cc
4F\	4c\	.	.
=111	=111	=111	=111
0F	1c	2r	2r
.	.	1f	1a
.	2r	.	.
.	[2c\	2f/	2a/
=112	=112	=112	=112
0r	2c\]	2e/	2a/
.	2c\	2e/	2a/
.	2d\	2f/	2b-\
.	[2c\	[2e/	[2a/
=113	=113	=113	=113
1r	2c\]	2e/]	2a/]
.	4B-\	4d/	4g/
.	4A/	4c/	4f/
2r	2B-\	2d/	1g
2c\	2c\	2e/	.
=114	=114	=114	=114
2c\	1F	2f/	1a
2c\	.	2a/	.
2d\	1r	2b-\	1r
[2c\	.	[2a/	.
=115	=115	=115	=115
2c\]	0r	2a/]	0r
4B-\	.	4g/	.
4A\	.	4f/	.
2B-\	.	1g	.
2c\	.	.	.
=116	=116	=116	=116
1F	1c	0a	1r
1r	[1f	.	1cc
=117	=117	=117	=117
1F	2f\]	1r	1.ff
.	2f\	.	.
[1B-	1f	1f	.
.	.	.	2ff\
=118	=118	=118	=118
2B-\]	1f	1.b-	1ff
2B-\	.	.	.
1B-	1d	.	1ff
.	.	2b-\	.
=119	=119	=119	=119
1B-	2r	1b-	1dd
.	1d	.	.
1G	.	1b-	2r
.	2d\	.	[2dd\
=120	=120	=120	=120
1.G	1d	1g	2dd\]
.	.	.	2dd\
.	2.B-\	2r	1dd
2G\	.	[2g/	.
.	4G/	.	.
=121	=121	=121	=121
1G	1G	2g/]	2.b-\
.	.	2g/	.
.	.	.	4g/
2.E\	2r	1g	1g
.	2g\	.	.
4C/	.	.	.
=122	=122	=122	=122
1C	2g\	2.e/	2r
.	2g\	.	2gg\
.	.	4c/	.
2r	2.e\	1c	2gg\
2c\	.	.	2gg\
.	4c\	.	.
=123	=123	=123	=123
2c\	1c	2r	2.ee\
2c\	.	2cc\	.
.	.	.	4ee\
2.A\	1c	2cc\	1cc
.	.	2cc\	.
4F\	.	.	.
=124	=124	=124	=124
1F	1.f	2.a/	1cc
.	.	4f/	.
[1F	.	1f	[1ff
.	2e\	.	.
=125	=125	=125	=125
2F\]	2d\	2f/	2ff\]
2F\	2c\	2f/	2ee\
2F\	2.f\	2a/	2dd\
2F\	.	2a/	[2cc\
.	4e\	.	.
=126	=126	=126	=126
1G	1d	1g	2cc\]
.	.	.	2bni\
1C	1c	1e	[1cc
=127	=127	=127	=127
2r	2r	0r	1cc]
2c\	2e\	.	.
2c\	2e\	.	1r
2c\	2e\	.	.
=128	=128	=128	=128
1G	2d\	0r	0r
.	2.g\	.	.
2B-\	.	.	.
.	4f\	.	.
2A\	[2f\	.	.
=129	=129	=129	=129
2B-\	2f\]	1r	1r
2G\	2e\	.	.
1F	1f	2r	2r
.	.	2a/	2ff\
=130	=130	=130	=130
0r	0r	2a/	2ff\
.	.	2b-\	2ff\
.	.	1cc	1ee
=131	=131	=131	=131
0r	0r	2g/	2dd\
.	.	1b-	1gg
.	.	2a/	[2ff\
=132	=132	=132	=132
1r	1r	2.g/	2ff\]
.	.	.	2ee\
.	.	8f/L	.
.	.	8e/J	.
2r	2r	[1d	[1ff
[2B-\	[2f\	.	.
=133	=133	=133	=133
2B-\]	2f\]	1d]	1ff]
2B-\	2f\	.	.
2B-\	1f	1r	1r
2A\	.	.	.
=134	=134	=134	=134
2G\	2e\	1b-	2r
1B-	2d\	.	1ff
.	2.f\	2b-\	.
2B-\	.	[2b-\	2ff\
.	4f\	.	.
=135	=135	=135	=135
1F	1f	2b-\]	1ff
.	.	2a/	.
1r	1r	2g/	2ee\
.	.	[2b-\	2dd\
=136	=136	=136	=136
1r	1r	2b-\]	2.ff\
.	.	2b-\	.
.	.	.	4ff\
2r	2r	1f	1ff
2F\	2c\	.	.
=137	=137	=137	=137
2F\	2d\	0r	0r
2G\	2e\	.	.
1A	1f	.	.
=138	=138	=138	=138
2G\	2e\	0r	0r
2F\	1d	.	.
1E	.	.	.
.	2c#i\	.	.
=139	=139	=139	=139
1D	1d	2r	2r
.	.	1a	1ff
1r	1r	.	.
.	.	2g/	2ee\
=140	=140	=140	=140
0r	0r	2f/	2dd\
.	.	2e/	2cc\
.	.	2.f/	2.dd\
.	.	4c/	4cc\
=141	=141	=141	=141
1r	1r	2e/	2cc\
.	.	2d/	2bni\
2r	2r	1c	1cc
[2A\	[2f\	.	.
=142	=142	=142	=142
2A\]	2f\]	0r	0r
2G\	2e\	.	.
2F\	2d\	.	.
2E\	2c\	.	.
=143	=143	=143	=143
2F\	2.d\	0r	0r
2C/	.	.	.
.	4c\	.	.
2E\	2c\	.	.
2D\	2Bni\	.	.
=144	=144	=144	=144
1C	0c	1g	0r
2r	.	[1cc	.
2C/	.	.	.
=145	=145	=145	=145
1.F	2r	2cc\]	1r
.	2c\	2cc\	.
.	[1f	1cc	1cc
2F\	.	.	.
=146	=146	=146	=146
1F	2f\]	1cc	1.ff
.	2f\	.	.
1F	1f	1a	.
.	.	.	2ff\
=147	=147	=147	=147
1D	1f	2r	1ff
.	.	1dd	.
2r	1d	.	2ff\
[2G\	.	2dd\	2dd\
=148	=148	=148	=148
2G\]	2r	2dd\	1dd
2G\	1g	1b-	.
2G\	.	.	2r
[2E\	2g\	2g/	[2gg\
=149	=149	=149	=149
2E\]	2g\	1g	2gg\]
2C/	1e	.	2gg\
1C	.	2r	2gg\
.	2c\	2g/	[2ee\
=150	=150	=150	=150
2r	1c	2g/	2ee\]
2c\	.	2g/	2cc\
2c\	2r	2.e/	1cc
2c\	2c\	.	.
.	.	4c/	.
=151	=151	=151	=151
2.A\	2c\	1c	2r
.	2c\	.	2cc\
4F\	.	.	.
1F	2.A/	[1cc	2cc\
.	.	.	2cc\
.	4F/	.	.
=152	=152	=152	=152
1r	1F	2cc\]	2.a/
.	.	2b-\	.
.	.	.	4f/
[1F	2.f\	2a/	1f
.	.	2g/	.
.	4e\	.	.
=153	=153	=153	=153
2F\]	2d\	1f	2.ff\
2F\	2c\	.	.
.	.	.	4ee\
2F\	2.f\	1a	2dd\
2F\	.	.	[2cc\
.	4e\	.	.
=154	=154	=154	=154
1G	1d	1g	2cc\]
.	.	.	2bni\
1C	1c	1e	[1cc
=155	=155	=155	=155
2r	2r	0r	1cc]
2c\	2e\	.	.
2c\	2e\	.	1r
2B-\	2d\	.	.
=156	=156	=156	=156
1A	1f	0r	0r
2G\	2e\	.	.
2F\	2f\	.	.
=157	=157	=157	=157
2B-\	2d\	1r	1r
2B-\	2d\	.	.
1A	1c	2r	2r
.	.	2cc\	2ee\
=158	=158	=158	=158
0r	0r	2cc\	2ee\
.	.	2b-\	2dd\
.	.	1a	1ff
=159	=159	=159	=159
2r	2r	2g/	2ee\
1B-	2d\	2f/	2ff\
.	1d	2g/	2dd\
2B-\	.	2g/	2dd\
=160	=160	=160	=160
1F	1f	1a	0cc
2A\	2c\	1r	.
2A\	2c\	.	.
=161	=161	=161	=161
2G\	2d\	2b-\	1r
2G\	2e\	2b-\	.
1F	1f	1a	2ff\
.	.	.	2ff\
=162	=162	=162	=162
1C	0r	2.g/	1ee
.	.	4a/	.
1r	.	2b-\	2dd\
.	.	2a/	2cc\
=163	=163	=163	=163
1r	1r	2g/	2dd\
.	.	2g/	2ee\
[1F	2.f\	1f	1ff
.	4e\	.	.
=164	=164	=164	=164
2F\]	2d\	0r	0r
2E\	2c\	.	.
2D\	2B-\	.	.
2C/	[2A/	.	.
=165	=165	=165	=165
1BB-	2A/]	1r	1r
.	2G/	.	.
1AA	1A	[1a	1cc
=166	=166	=166	=166
0r	0r	2a/]	2cc\
.	.	2g/	1dd
.	.	2f/	.
.	.	2e/	[2cc\
=167	=167	=167	=167
0r	0r	1d	2cc\]
.	.	.	2bni\
.	.	1c	1cc
=168	=168	=168	=168
1F	1c	1f	1a
2F\	2c\	2f/	2a/
[2BB-/	[2d\	[2f/	[2b-\
=169	=169	=169	=169
2BB-/]	2d\]	2f/]	2b-\]
2F\	2c\	2f/	2a/
2G\	2B-\	2d/	2a/
2G\	2B-\	2e/	2g/
=170	=170	=170	=170
*M3/1	*M3/1	*M3/1	*M3/1
*met(C|3)	*met(C|3)	*met(C|3)	*met(C|3)
0.F	0A	0f	0a
.	1r	1r	1r
=171	=171	=171	=171
0.r	0.r	1f	1a
.	.	1f	1a
.	.	1g	1b-
=172	=172	=172	=172
0.r	0.r	0a	0cc
.	.	1g	1b-
=173	=173	=173	=173
0.r	0.r	0f	1a
.	.	.	1a
.	.	1e	1g
=174	=174	=174	=174
1F	1A	1f	0a
1F	1A	1d	.
1G	1B-	1e	1r
=175	=175	=175	=175
0A	0c	0f	0.r
1G	1B-	1e	.
=176	=176	=176	=176
1F	1A	0d	0.r
0E	1A	.	.
.	1G	1c#i	.
=177	=177	=177	=177
0D	0A	1.d	0ff
.	.	2e/	.
1r	1r	1f	1ff
=178	=178	=178	=178
0.r	0.r	0g	1ee
.	.	.	1.dd
.	.	1e	.
.	.	.	2cc\
=179	=179	=179	=179
1F	0.r	1f	0cc
1F	.	0d	.
1G	.	.	1b-
=180	=180	=180	=180
0A	0c	0c	1.cc
.	.	.	2b-\
1F	1d	1r	1a
=181	=181	=181	=181
1.G	1e	0.r	1g
.	1.d	.	1.b-
2F\	.	.	.
1E	.	.	.
.	2c\	.	2a/
=182	=182	=182	=182
1F	0c	1r	1.a
0D	.	1r	.
.	.	.	2g/
.	1B-	1d	1f
=183	=183	=183	=183
0C	1.c	1g	1e
.	.	1e	0g
.	2B-\	.	.
1D	1A	1f	.
=184	=184	=184	=184
1BB-	1B-	1d	0f
0C	1G	0c	.
.	1G	.	1e
=185	=185	=185	=185
*M2/1	*M2/1	*M2/1	*M2/1
*met(C|)	*met(C|)	*met(C|)	*met(C|)
2r	1F	1c	0f
2c\	.	.	.
2B-\	2r	1r	.
2A\	2f\	.	.
=186	=186	=186	=186
2G\	2e\	0r	0r
2G\	2d\	.	.
2.A\	2c\	.	.
.	[2f\	.	.
4G\	.	.	.
=187	=187	=187	=187
2F\	4f\]	1r	0r
.	4e\	.	.
2G\	1d	.	.
2E\	.	2r	.
2E\	2c#i\	2cc\	.
=188	=188	=188	=188
1D	2d\	2b-\	2r
.	2A/	2a/	2ff\
1r	2c\	2g/	2ee\
.	2B-\	2g/	2dd\
=189	=189	=189	=189
0r	2A/	2.a/	2cc\
.	1d	.	2.ff\
.	.	4g/	.
.	.	2f/	.
.	.	.	4ee\
.	2G/	2g/	[2dd\
=190	=190	=190	=190
1r	1A	2e/	2dd\]
.	.	2e/	2cc#i\
2r	1f	1d	2dd\
[2d\	.	.	[2ff\
=191	=191	=191	=191
2d\]	2f\	0r	2ff\]
2c\	1g	.	2ee\
2B-\	.	.	2dd\
2A\	[2f\	.	2cc\
=192	=192	=192	=192
1G	2f\]	1g	1b-
.	2e\	.	.
1F	1f	[1cc	4a/
.	.	.	4b-\
.	.	.	4cc\
.	.	.	4dd\
=193	=193	=193	=193
0r	0r	2cc\]	4ee\
.	.	.	4ff\
.	.	2b-\	1gg
.	.	2a/	.
.	.	2f/	[2ff\
=194	=194	=194	=194
1r	1r	1g	2ff\]
.	.	.	2ee\
2F\	2c\	[1f	1ff
2F\	2c\	.	.
=195	=195	=195	=195
2.B-\	2.d\	1f]	1r
4B-\	4d\	.	.
1F	1c	2a/	2cc\
.	.	2a/	2cc\
=196	=196	=196	=196
1r	1r	2.b-\	2.dd\
.	.	4b-\	4dd\
2F\	2c\	1a	1cc
2F\	2c\	.	.
=197	=197	=197	=197
2.B-\	2.d\	2.b-\	2f/
.	.	.	2f/
4B-\	4d\	4b-\	.
4F\	1c	1a	2.cc\
4G\	.	.	.
4A\	.	.	.
4B-\	.	.	4dd\
=198	=198	=198	=198
2c\	2r	2g/	2ee\
1d	2f\	1b-	1ff
.	2d\	.	.
2c\	2e\	[2a/	2ee\
=199	=199	=199	=199
1B-	2f\	2a/]	1dd
.	2d\	2g/	.
1A	1e	1a	1cc
=200	=200	=200	=200
2.F\	1f	2r	2.a/
.	.	1a	.
4G\	.	.	4b-\
2A\	2e\	.	2cc\
[2B-\	2d\	[2g/	[2dd\
=201	=201	=201	=201
2B-\]	2f\	2g/]	2dd\]
2A\	2c\	1f	2cc\
1G	2d\	.	1b-
.	2B-\	2e/	.
=202	=202	=202	=202
1F	1c	1.f	1a
2r	2.A/	.	2.f/
[2F\	.	[2a/	.
.	4B-\	.	4g/
=203	=203	=203	=203
2F\]	2c\	4a/]	2a/
.	.	4g/	.
2BB-/	2.d\	4f/	2.b-\
.	.	4e/	.
1BB-	.	1d	.
.	4c\	.	4a/
.	4B-\	.	4g/
.	4A/	.	4f/
=204	=204	=204	=204
[0C	[0G	0c	[0e
=205	=205	=205	=205
0C;]	0G;]	0c;	0e;]
=206	=206	=206	=206
[0Fl	0F	[0cl	[0fl
=207	=207	=207	=207
0F]	0Fl	0c]	0f]
==	==	==	==
*-	*-	*-	*-
!!!RDF**kern: l=long note in original notation
!!!RDF**kern: i=editorial accidental
!!!ENC:	Jesse Rodin 8/24/2013
!!!END:	2013/08/24/
!!!EED:	Jesse Rodin
!!!EEV:	2014/01/08/
!!attribution-level@Jos: 5 (doubtful)
!!!ONB:	Translated from MusicXML and edited on 2014/01/08/ by Craig Sapp
!!muse2ps: C^@{COA}?\n@{SCT}^i2I150v85,85,85,150c180
